images/slider_left.svg

<svg width="65" height="65" viewBox="0 0 65 65" fill="none" xmlns="http://www.w3.org/2000/svg">
<circle cx="32.5" cy="32.5" r="32.5" fill="#40C1FF"/>
<path d="M22.8524 32.8447L42.5553 32.8447L42.5553 30.7031L22.8524 30.7031L22.8524 32.8447Z" fill="white"/>
<path d="M26.61 26.4697L28.1244 27.9841L24.3687 31.7397L28.1244 35.4954L26.61 37.0098L21.34 31.7397L26.61 26.4697Z" fill="white"/>
</svg>

<svg width="65" height="65" fill="none" xmlns="http://www.w3.org/2000/svg"><circle cx="32.5" cy="32.5" r="32.5" fill="#40C1FF"/><path d="M22.852 32.845h19.703v-2.142H22.852v2.142Z" fill="#fff"/><path d="m26.61 26.47 1.514 1.514-3.755 3.756 3.755 3.755-1.514 1.515-5.27-5.27 5.27-5.27Z" fill="#fff"/></svg>
